X:69
T:Quick Step.#3 JBs.069
S:Jas.Blackshaw MS, 1837, N.Shropshire
A:North Shropshire
Z:T. Weatherall 2006
M:6/8
L:1/8
Q:3/8=110
R:Quick Step
K:C
g|gec cBc|d2dd2e|fef a>gf|e2ee2g|!
gec cBc|d2dd2e|fag fed|c2cc2:|!
|:e|fdB GBd|ceg c'ge|fdB GBd|ceg c'ge|!
fga agf|efg gfe|dag fed|c2"*"cc2:|

